React/src/assets/images/frontend/react.svg

<svg width="130" height="130" viewBox="0 0 130 130" fill="none" xmlns="http://www.w3.org/2000/svg">
<path d="M65 54.7624C70.5792 54.7624 75.1292 59.3124 75.1292 64.9999C75.1292 70.4165 70.5792 75.0207 65 75.0207C59.4208 75.0207 54.8708 70.4165 54.8708 64.9999C54.8708 59.3124 59.4208 54.7624 65 54.7624ZM39.9208 108.333C43.3333 110.392 50.8083 107.25 59.4208 99.1248C56.6042 95.929 53.8417 92.4624 51.2417 88.8332C46.8 88.3999 42.4125 87.7499 38.2417 86.8832C35.4792 98.4749 36.5083 106.437 39.9208 108.333V108.333ZM43.7667 77.2415L42.1958 74.479C41.6 76.0499 41.0042 77.6207 40.625 79.1374C42.0875 79.4624 43.7125 79.7332 45.3917 80.004L43.7667 77.2415ZM79.1917 73.1249L83.5792 64.9999L79.1917 56.8749C77.5667 54.004 75.8333 51.4582 74.2625 48.9124C71.3375 48.7499 68.25 48.7499 65 48.7499C61.75 48.7499 58.6625 48.7499 55.7375 48.9124C54.1667 51.4582 52.4333 54.004 50.8083 56.8749L46.4208 64.9999L50.8083 73.1249C52.4333 75.9957 54.1667 78.5415 55.7375 81.0874C58.6625 81.2499 61.75 81.2499 65 81.2499C68.25 81.2499 71.3375 81.2499 74.2625 81.0874C75.8333 78.5415 77.5667 75.9957 79.1917 73.1249ZM65 36.7249C63.9708 37.9165 62.8875 39.1624 61.8042 40.6249H68.1958C67.1125 39.1624 66.0292 37.9165 65 36.7249ZM65 93.2748C66.0292 92.0832 67.1125 90.8374 68.1958 89.3749H61.8042C62.8875 90.8374 63.9708 92.0832 65 93.2748ZM90.025 21.6665C86.6667 19.6082 79.1917 22.7499 70.5792 30.8749C73.3958 34.0707 76.1583 37.5374 78.7583 41.1665C83.2 41.5999 87.5875 42.2499 91.7583 43.1165C94.5208 31.5249 93.4917 23.5624 90.025 21.6665ZM86.2333 52.7582L87.8042 55.5207C88.4 53.9499 88.9958 52.379 89.375 50.8624C87.9125 50.5374 86.2875 50.2665 84.6083 49.9957L86.2333 52.7582V52.7582ZM94.0875 14.5707C102.05 19.1207 102.917 31.0915 99.5583 45.0665C113.317 49.129 123.229 55.8457 123.229 64.9999C123.229 74.154 113.317 80.8707 99.5583 84.9332C102.917 98.9082 102.05 110.879 94.0875 115.429C86.1792 119.979 75.4 114.779 65 104.867C54.6 114.779 43.8208 119.979 35.8583 115.429C27.95 110.879 27.0833 98.9082 30.4417 84.9332C16.6833 80.8707 6.77083 74.154 6.77083 64.9999C6.77083 55.8457 16.6833 49.129 30.4417 45.0665C27.0833 31.0915 27.95 19.1207 35.8583 14.5707C43.8208 10.0207 54.6 15.2207 65 25.1332C75.4 15.2207 86.1792 10.0207 94.0875 14.5707V14.5707ZM92.5167 64.9999C94.3583 69.0624 95.9833 73.1249 97.3375 77.2415C108.712 73.829 115.104 68.954 115.104 64.9999C115.104 61.0457 108.712 56.1707 97.3375 52.7582C95.9833 56.8749 94.3583 60.9374 92.5167 64.9999ZM37.4833 64.9999C35.6417 60.9374 34.0167 56.8749 32.6625 52.7582C21.2875 56.1707 14.8958 61.0457 14.8958 64.9999C14.8958 68.954 21.2875 73.829 32.6625 77.2415C34.0167 73.1249 35.6417 69.0624 37.4833 64.9999ZM86.2333 77.2415L84.6083 80.004C86.2875 79.7332 87.9125 79.4624 89.375 79.1374C88.9958 77.6207 88.4 76.0499 87.8042 74.479L86.2333 77.2415ZM70.5792 99.1248C79.1917 107.25 86.6667 110.392 90.025 108.333C93.4917 106.437 94.5208 98.4749 91.7583 86.8832C87.5875 87.7499 83.2 88.3999 78.7583 88.8332C76.1583 92.4624 73.3958 95.929 70.5792 99.1248V99.1248ZM43.7667 52.7582L45.3917 49.9957C43.7125 50.2665 42.0875 50.5374 40.625 50.8624C41.0042 52.379 41.6 53.9499 42.1958 55.5207L43.7667 52.7582ZM59.4208 30.8749C50.8083 22.7499 43.3333 19.6082 39.9208 21.6665C36.5083 23.5624 35.4792 31.5249 38.2417 43.1165C42.4125 42.2499 46.8 41.5999 51.2417 41.1665C53.8417 37.5374 56.6042 34.0707 59.4208 30.8749V30.8749Z" fill="#0288D1"/>
</svg>

<svg width="130" height="130" fill="none" xmlns="http://www.w3.org/2000/svg"><path d="M65 54.762c5.58 0 10.13 4.55 10.13 10.238 0 5.416-4.55 10.02-10.13 10.02-5.58 0-10.13-4.603-10.13-10.02 0-5.688 4.55-10.238 10.13-10.238zm-25.08 53.571c3.413 2.059 10.888-1.083 19.5-9.208a131.216 131.216 0 01-8.178-10.292c-4.442-.433-8.83-1.083-13-1.95-2.763 11.592-1.734 19.554 1.679 21.45zm3.847-31.091l-1.571-2.763c-.596 1.57-1.192 3.142-1.571 4.658 1.462.325 3.087.596 4.767.867l-1.625-2.763zm35.425-4.117L83.579 65l-4.387-8.125c-1.625-2.871-3.359-5.417-4.93-7.963-2.924-.162-6.012-.162-9.262-.162-3.25 0-6.337 0-9.263.162-1.57 2.546-3.304 5.092-4.929 7.963L46.421 65l4.387 8.125c1.625 2.87 3.359 5.416 4.93 7.962 2.925.163 6.012.163 9.262.163 3.25 0 6.338 0 9.263-.163 1.57-2.546 3.304-5.091 4.929-7.962zM65 36.725c-1.03 1.191-2.112 2.437-3.196 3.9h6.392c-1.084-1.463-2.167-2.709-3.196-3.9zm0 56.55c1.03-1.192 2.112-2.438 3.196-3.9h-6.392c1.084 1.462 2.167 2.708 3.196 3.9zm25.025-71.609c-3.358-2.058-10.833 1.084-19.446 9.209a131.235 131.235 0 018.18 10.291c4.441.434 8.829 1.084 13 1.95 2.762-11.591 1.733-19.554-1.734-21.45zm-3.792 31.092l1.571 2.763c.596-1.571 1.192-3.142 1.571-4.659-1.463-.325-3.088-.596-4.767-.866l1.625 2.762zm7.855-38.187c7.962 4.55 8.829 16.52 5.47 30.495C113.317 49.13 123.23 55.846 123.23 65c0 9.154-9.912 15.87-23.67 19.933 3.358 13.975 2.491 25.946-5.471 30.496-7.909 4.55-18.688-.65-29.088-10.562-10.4 9.912-21.18 15.112-29.142 10.562-7.908-4.55-8.775-16.52-5.416-30.496C16.683 80.871 6.77 74.154 6.77 65s9.912-15.871 23.67-19.934c-3.358-13.975-2.491-25.945 5.417-30.495C43.821 10.02 54.6 15.22 65 25.133c10.4-9.912 21.18-15.112 29.088-10.562zM92.517 65c1.841 4.062 3.466 8.125 4.82 12.242 11.375-3.413 17.767-8.288 17.767-12.242 0-3.954-6.392-8.83-17.766-12.242-1.355 4.117-2.98 8.18-4.821 12.242zm-55.034 0c-1.841-4.063-3.466-8.125-4.82-12.242C21.288 56.171 14.896 61.046 14.896 65c0 3.954 6.392 8.829 17.767 12.242 1.354-4.117 2.979-8.18 4.82-12.242zm48.75 12.242l-1.625 2.762c1.68-.27 3.304-.542 4.767-.867-.38-1.516-.975-3.087-1.57-4.658l-1.572 2.763zM70.58 99.124c8.613 8.125 16.088 11.267 19.446 9.208 3.467-1.896 4.496-9.858 1.733-21.45-4.17.867-8.558 1.517-13 1.95-2.6 3.63-5.362 7.096-8.179 10.292zM43.767 52.758l1.625-2.762c-1.68.27-3.305.541-4.767.866.38 1.517.975 3.088 1.57 4.659l1.572-2.763zM59.42 30.875c-8.613-8.125-16.088-11.267-19.5-9.209-3.413 1.896-4.442 9.859-1.68 21.45 4.172-.866 8.559-1.516 13-1.95 2.6-3.629 5.363-7.095 8.18-10.291z" fill="#0288D1"/></svg>
